X: 17581
T: Hobbit
R: reel
M: 4/4
K: Eminor
(AG)||~E3 G A2AB|cABG AGED|E3 cBAAB|
(3cBA (3ABd edBA|E3 cBAAB|cABG A3|E3 cBA2B|cdec A4:|
Beef gfeg|fedf edBA|B(3eeef gfeg|fedf e4|
Beef gfeg|fedf edBA|Beef gfed|BAGF E3:|

